X:1
T:Pant Corlan yr Wyn  [A]
T:the Lambs' Fold Vale
T:Let Now the Harp
M:2/2
L:1/8
C:Trad
S:Blodau'r Grug Collection Vol. 1
R:Hornpipe
A:Wales
Z:brian_martin12345@yahoo.com
K:A
cB \
| "A"A2AB c2A2 | "E7"d2Bc d2B2 | "A"c2A2 A2c2 | "E7"e2B2 G2E2 \
"I"\
| "A"A2AB c2A2 | "D"d2dc "Bm"B2d2 | "A"c2A2 "E7"GABG | "A"A2A2 A2 :|
|: ed \
| "A"c2e2 e2dc | "E7"B2d2 d2cB | "F#m"A2c2 "B7"c2BA | "E"G2B2 "E7"G2E2 \
| "A"A2AB c2A2 | "D"d2dc "Bm"B2d2 | "A"c2A2 "E7"GABG | "A"A2A2 A2 :|
